icons/outline/sun-wind.svg

<!--
tags: [temperature, wheater, thermometer, forecast, windy]
category: Weather
version: "1.73"
unicode: "f238"
-->
<svg
  xmlns="http://www.w3.org/2000/svg"
  width="24"
  height="24"
  viewBox="0 0 24 24"
  fill="none"
  stroke="currentColor"
  stroke-width="2"
  stroke-linecap="round"
  stroke-linejoin="round"
>
  <path d="M14.468 10a4 4 0 1 0 -5.466 5.46m-7.002 -3.46h1m8 -9v1m0 16v1m-6.4 -15.4l.7 .7m12.1 -.7l-.7 .7m-11.4 11.4l-.7 .7m10.4 -5.4h5a2 2 0 1 0 0 -4m-8 7h5.714l.253 0a2 2 0 0 1 2.033 2a2 2 0 0 1 -2 2h-.286" />
</svg>

<!--
tags: [temperature, wheater, thermometer, forecast, windy]
category: Weather
version: "1.73"
unicode: "f238"
-->
<svg
  xmlns="http://www.w3.org/2000/svg"
  width="24"
  height="24"
  viewBox="0 0 24 24"
  fill="none"
  stroke="currentColor"
  stroke-width="2"
  stroke-linecap="round"
  stroke-linejoin="round"
>
    <path d="M14.468 10a4 4 0 1 0 -5.466 5.46M2 12h1M11 3v1M11 20v1M4.6 5.6l.7 .7M17.4 5.6l-.7 .7M5.3 17.7l-.7 .7M15 13h5a2 2 0 1 0 0 -4M12 16h5.714l.253 0a2 2 0 0 1 2.033 2a2 2 0 0 1 -2 2h-.286" />
</svg>
